packages/icons/src/svg/flow-o.svg

<svg xmlns="http://www.w3.org/2000/svg" viewBox="0 0 16 16">
  <path d="M8,2H1A.97939.97939,0,0,0,0,3V13a.97939.97939,0,0,0,1,1H8l3-6ZM7,13H2a.97939.97939,0,0,1-1-1V4A.97939.97939,0,0,1,2,3H7l3,5ZM15,2H10l3,6-3,6h5a.97939.97939,0,0,0,1-1V3A.97939.97939,0,0,0,15,2Zm0,10a.97939.97939,0,0,1-1,1H12l2-5L12,3h2a.97939.97939,0,0,1,1,1Z"/>
</svg>

<svg xmlns="http://www.w3.org/2000/svg" viewBox="0 0 16 16">
	<path d="M8 2H1a.98.98 0 0 0-1 1v10a.98.98 0 0 0 1 1h7l3-6zM7 13H2a.98.98 0 0 1-1-1V4a.98.98 0 0 1 1-1h5l3 5zm8-11h-5l3 6-3 6h5a.98.98 0 0 0 1-1V3a.98.98 0 0 0-1-1zm0 10a.98.98 0 0 1-1 1h-2l2-5-2-5h2a.98.98 0 0 1 1 1z"/>
</svg>
